src/next/cmd/lc_datasort.svg

<svg height="24" viewBox="0 0 6.3499999 6.3500003" width="24" xmlns="http://www.w3.org/2000/svg" xmlns:xlink="http://www.w3.org/1999/xlink"><linearGradient id="a" gradientTransform="matrix(.22678575 0 0 .3175 4.511685 282.5207)" gradientUnits="userSpaceOnUse" x1="86.50396" x2="86.50396" xlink:href="#h" y1="37.416798" y2="8.61134"/><linearGradient id="b" gradientTransform="matrix(.12571453 0 0 -.12571453 6.457134 17.102049)" gradientUnits="userSpaceOnUse" x1="87.231171" x2="114.63911" y1="26.212187" y2="128.5"><stop offset="0" stop-color="#2c72c7"/><stop offset="1" stop-color="#00438a"/></linearGradient><linearGradient id="c" gradientTransform="matrix(.12571453 0 0 -.12571453 6.457134 17.102049)" gradientUnits="userSpaceOnUse" x1="114.37838" x2="112.9539" y1="42.286964" y2="132.19691"><stop offset="0" stop-color="#bbd6ff"/><stop offset="1" stop-color="#0057ae"/></linearGradient><linearGradient id="d" gradientUnits="userSpaceOnUse" x1="124.5" x2="135.74562" y1="125" y2="2.932803"><stop offset="0" stop-color="#fff"/><stop offset="1" stop-color="#fff" stop-opacity="0"/></linearGradient><linearGradient id="e" gradientTransform="matrix(.26458334 0 0 -.26458334 13.60198 282.33623)" gradientUnits="userSpaceOnUse" x1="104" x2="104" y1="124.5" y2="61.61084"><stop offset="0" stop-color="#d4e2f3"/><stop offset="1" stop-color="#fff" stop-opacity="0"/></linearGradient><radialGradient id="f" cx="56" cy="66" gradientTransform="matrix(1.3633683 0 0 2.5290688 -28.848628 -99.010812)" gradientUnits="userSpaceOnUse" r="48"><stop offset="0" stop-color="#fff"/><stop offset="1" stop-color="#eee"/></radialGradient><linearGradient id="g" gradientTransform="matrix(.22678575 0 0 .3175 4.511685 248.84654)" gradientUnits="userSpaceOnUse" x1="86.50396" x2="86.50396" xlink:href="#h" y1="37.416798" y2="8.61134"/><linearGradient id="h"><stop offset="0" stop-color="#ececec"/><stop offset="1" stop-color="#8696aa"/></linearGradient><linearGradient id="i" gradientTransform="matrix(.22678575 0 0 .3175 4.511685 265.77987)" gradientUnits="userSpaceOnUse" x1="86.50396" x2="86.50396" xlink:href="#h" y1="37.416798" y2="8.61134"/><filter id="j"><feGaussianBlur stdDeviation=".385"/></filter><g transform="matrix(.12571453 0 0 .12571453 -.001516 -30.968848)"><g transform="matrix(.26458333 0 0 .32445256 6.482292 251.68381)"><path d="m-16.499882-9.9753983h143.181542l-.00012 143.5289683h-143.18154z" style="opacity:.5;fill:none;stroke:#000;stroke-width:7.224297;stroke-linecap:round;stroke-linejoin:round"/><path d="m-16.499882-9.9753983h143.181542l-.00012 143.1212283h-143.18154z" fill="#fff"/><path d="m-8.499882-3.7819413h127.181542l-.00012 130.4039613h-127.18154z" fill="url(#f)"/></g><rect fill="url(#g)" height="6.313907" opacity=".25" rx=".807631" width="29.464905" x="6.325971" y="252.65654"/><rect fill="url(#i)" height="6.217661" opacity=".25" rx=".807631" width="29.464905" x="6.325971" y="269.58987"/><path d="m29.476967 271.59826h-8.418544v2.11667h8.418544z" opacity=".3"/><path d="m29.476967 254.76117h-8.454636v2.11667h8.454636z" opacity=".3"/><path d="m8.4426373 280.17324h4.2333337v2.11667h-4.2333337z" opacity=".3"/><path d="m8.4426373 263.23989h4.2333337v2.11667h-4.2333337z" opacity=".3"/><g transform="matrix(2.1046361 0 0 2.1046361 .012062 246.34263)"><path d="m18.525391 1.4511719-2.513672 2.5136719h2.011719l-.001954 1.234375h-.027343l.013671 6.9003902-.013671 6.900391h.027343l.001954 1.234375h-2.011719l2.513672 2.513672 2.513671-2.513672h-2.009765l-.015625-8.134766.015625-8.1347652h2.009765z" fill="none" stroke="#fff" stroke-linecap="round" stroke-linejoin="round" stroke-width="2.011432"/><path d="m19.53125 1.1992188-2.513672 2.765625h2.011719l-.001953 1.234375h-.027344l.013672 6.9003902-.013672 6.900391h.027344l.001953 1.234375h-2.011719l2.513672 2.765625 2.513672-2.765625h-2.009766l-.015625-8.134766.015625-8.1347652h2.009766z" fill="none" stroke="url(#b)" stroke-linecap="round" stroke-linejoin="round" stroke-width="2.011432"/><path d="m19.53125 1.4511719-2.513672 2.5136719h2.011719l-.001953 1.234375h-.027344l.013672 6.9003902-.013672 6.900391h.027344l.001953 1.234375h-2.011719l2.513672 2.513672 2.513672-2.513672h-2.009766l-.015625-8.134766.015625-8.1347652h2.009766z" fill="url(#c)" fill-rule="evenodd" stroke-width=".125715"/></g><path d="m104 124.5-20-20h16v-64h8v64h16z" fill="none" filter="url(#j)" opacity=".898396" stroke="url(#d)" transform="matrix(.26458333 0 0 -.26458333 13.60198 282.33622)"/><path d="m18.953787 254.76117-10.5111497.012v2.11667l10.5111497-.012z" opacity=".3"/><path d="m14.792639 263.23989 14.684328-.0602v2.11667l-14.684328.0602z" opacity=".3"/><path d="m18.941755 271.59826-10.4991177.1083v2.11667l10.4991177-.1083z" opacity=".3"/><path d="m14.792639 280.17324 14.684329-.15643v2.11667l-14.684329.15643z" opacity=".3"/><rect fill="url(#a)" height="6.313906" opacity=".25" rx=".807631" width="29.464905" x="6.325971" y="286.33072"/><path d="m29.476968 288.29096-10.450996.15643v2.11667l10.450996-.15643z" opacity=".3"/><path d="m16.909304 288.44739h-8.4666669v2.11667h8.4666669z" opacity=".3"/><path d="m41.118647 249.3956-5.291666 5.29166h4.233333v14.59343c.722114-.18324 1.429851-.38502 2.116667-.60358v-13.98985h4.233333z" fill="url(#e)" fill-rule="evenodd" stroke-width=".264583"/></g></svg>

<?xml version="1.0" encoding="UTF-8" standalone="no"?>
<svg
   xmlns:dc="http://purl.org/dc/elements/1.1/"
   xmlns:cc="http://creativecommons.org/ns#"
   xmlns:rdf="http://www.w3.org/1999/02/22-rdf-syntax-ns#"
   xmlns:svg="http://www.w3.org/2000/svg"
   xmlns="http://www.w3.org/2000/svg"
   xmlns:xlink="http://www.w3.org/1999/xlink"
   xmlns:sodipodi="http://sodipodi.sourceforge.net/DTD/sodipodi-0.dtd"
   xmlns:inkscape="http://www.inkscape.org/namespaces/inkscape"
   height="24"
   viewBox="0 0 6.3499999 6.3500003"
   width="24"
   version="1.1"
   id="svg79"
   sodipodi:docname="lc_datasort.svg"
   inkscape:export-filename="/home/rizmut/Dokumen/Rizmut/Github/libreoffice-style-karasa-jaga/build/next/cmd/lc_datasort.png"
   inkscape:export-xdpi="96"
   inkscape:export-ydpi="96"
   inkscape:version="0.92.4 (unknown)">
  <metadata
     id="metadata85">
    <rdf:RDF>
      <cc:Work
         rdf:about="">
        <dc:format>image/svg+xml</dc:format>
        <dc:type
           rdf:resource="http://purl.org/dc/dcmitype/StillImage" />
        <dc:title></dc:title>
      </cc:Work>
    </rdf:RDF>
  </metadata>
  <defs
     id="defs83">
    <linearGradient
       inkscape:collect="always"
       xlink:href="#c"
       id="linearGradient970"
       gradientUnits="userSpaceOnUse"
       gradientTransform="matrix(0.22678575,0,0,0.3175,4.5116851,282.5207)"
       x1="86.50396"
       y1="37.416798"
       x2="86.50396"
       y2="8.6113396" />
    <linearGradient
       inkscape:collect="always"
       xlink:href="#e"
       id="linearGradient1030"
       gradientUnits="userSpaceOnUse"
       x1="87.231171"
       y1="26.212187"
       x2="114.63911"
       y2="128.5"
       gradientTransform="matrix(0.12571453,0,0,-0.12571453,6.4571343,17.102049)" />
    <linearGradient
       inkscape:collect="always"
       xlink:href="#f"
       id="linearGradient1032"
       gradientUnits="userSpaceOnUse"
       x1="114.37838"
       y1="42.286964"
       x2="112.9539"
       y2="132.19691"
       gradientTransform="matrix(0.12571453,0,0,-0.12571453,6.4571343,17.102049)" />
    <linearGradient
       inkscape:collect="always"
       xlink:href="#g"
       id="linearGradient1034"
       gradientUnits="userSpaceOnUse"
       x1="124.5"
       y1="125"
       x2="135.74562"
       y2="2.9328029" />
    <linearGradient
       id="i-3"
       gradientUnits="userSpaceOnUse"
       x1="104"
       x2="104"
       y1="124.5"
       y2="61.61084">
      <stop
         offset="0"
         stop-color="#d4e2f3"
         id="stop32-6" />
      <stop
         offset="1"
         stop-color="#fff"
         stop-opacity="0"
         id="stop34-7" />
    </linearGradient>
    <linearGradient
       inkscape:collect="always"
       xlink:href="#i-3"
       id="linearGradient1036"
       gradientUnits="userSpaceOnUse"
       x1="104"
       y1="124.5"
       x2="104"
       y2="61.61084"
       gradientTransform="matrix(0.26458334,0,0,-0.26458334,13.60198,282.33623)" />
  </defs>
  <sodipodi:namedview
     pagecolor="#ffffff"
     bordercolor="#666666"
     borderopacity="1"
     objecttolerance="10"
     gridtolerance="10"
     guidetolerance="10"
     inkscape:pageopacity="0"
     inkscape:pageshadow="2"
     inkscape:window-width="1366"
     inkscape:window-height="714"
     id="namedview81"
     showgrid="true"
     inkscape:zoom="14.75"
     inkscape:cx="5.0501599"
     inkscape:cy="11.214525"
     inkscape:window-x="0"
     inkscape:window-y="28"
     inkscape:window-maximized="1"
     inkscape:current-layer="g77">
    <inkscape:grid
       type="xygrid"
       id="grid895" />
  </sodipodi:namedview>
  <radialGradient
     id="a"
     cx="56"
     cy="66"
     gradientTransform="matrix(1.3633683,0,0,2.5290688,-28.848628,-99.010812)"
     gradientUnits="userSpaceOnUse"
     r="48">
    <stop
       offset="0"
       stop-color="#fff"
       id="stop2" />
    <stop
       offset="1"
       stop-color="#eee"
       id="stop4" />
  </radialGradient>
  <linearGradient
     id="b"
     gradientTransform="matrix(0.22678575,0,0,0.3175,4.5116853,248.84654)"
     gradientUnits="userSpaceOnUse"
     x1="86.50396"
     x2="86.50396"
     xlink:href="#c"
     y1="37.416798"
     y2="8.6113396" />
  <linearGradient
     id="c">
    <stop
       offset="0"
       stop-color="#ececec"
       id="stop8" />
    <stop
       offset="1"
       stop-color="#8696aa"
       id="stop10" />
  </linearGradient>
  <linearGradient
     id="d"
     gradientTransform="matrix(0.22678575,0,0,0.3175,4.5116853,265.77987)"
     gradientUnits="userSpaceOnUse"
     x1="86.50396"
     x2="86.50396"
     xlink:href="#c"
     y1="37.416798"
     y2="8.6113396" />
  <linearGradient
     id="e"
     gradientUnits="userSpaceOnUse"
     x1="87.231171"
     x2="114.63911"
     y1="26.212187"
     y2="128.5">
    <stop
       offset="0"
       stop-color="#2c72c7"
       id="stop14" />
    <stop
       offset="1"
       stop-color="#00438a"
       id="stop16" />
  </linearGradient>
  <linearGradient
     id="f"
     gradientUnits="userSpaceOnUse"
     x1="114.37838"
     x2="112.9539"
     y1="42.286964"
     y2="132.19691">
    <stop
       offset="0"
       stop-color="#bbd6ff"
       id="stop19" />
    <stop
       offset="1"
       stop-color="#0057ae"
       id="stop21" />
  </linearGradient>
  <linearGradient
     id="g"
     gradientUnits="userSpaceOnUse"
     x1="124.5"
     x2="135.74562"
     y1="125"
     y2="2.9328029">
    <stop
       offset="0"
       stop-color="#fff"
       id="stop24" />
    <stop
       offset="1"
       stop-color="#fff"
       stop-opacity="0"
       id="stop26" />
  </linearGradient>
  <filter
     id="h">
    <feGaussianBlur
       stdDeviation=".385"
       id="feGaussianBlur29" />
  </filter>
  <linearGradient
     id="i"
     gradientUnits="userSpaceOnUse"
     x1="104"
     x2="104"
     y1="124.5"
     y2="61.61084">
    <stop
       offset="0"
       stop-color="#d4e2f3"
       id="stop32" />
    <stop
       offset="1"
       stop-color="#fff"
       stop-opacity="0"
       id="stop34" />
  </linearGradient>
  <g
     transform="matrix(0.12571453,0,0,0.12571453,-0.00151639,-30.968848)"
     id="g77">
    <g
       transform="matrix(0.26458333,0,0,0.32445256,6.482292,251.68381)"
       id="g43">
      <path
         inkscape:connector-curvature="0"
         d="m -16.499882,-9.9753983 143.181542,0 -1.2e-4,143.5289683 -143.18154,0 z"
         style="opacity:0.5;fill:none;stroke:#000000;stroke-width:7.22429705;stroke-linecap:round;stroke-linejoin:round"
         id="path37"
         sodipodi:nodetypes="ccccc" />
      <path
         style="fill:#ffffff"
         inkscape:connector-curvature="0"
         d="m -16.499882,-9.9753983 143.181542,0 -1.2e-4,143.1212283 -143.18154,0 z"
         id="path39"
         sodipodi:nodetypes="ccccc" />
      <path
         inkscape:connector-curvature="0"
         style="fill:url(#a)"
         d="m -8.499882,-3.7819413 127.181542,0 -1.2e-4,130.4039613 -127.18154,0 z"
         id="path41"
         sodipodi:nodetypes="ccccc" />
    </g>
    <rect
       style="opacity:0.25;fill:url(#b)"
       height="6.3139071"
       rx="0.80763102"
       width="29.464905"
       x="6.3259706"
       y="252.65654"
       id="rect45" />
    <rect
       style="opacity:0.25;fill:url(#d)"
       height="6.2176614"
       rx="0.80763102"
       width="29.464905"
       x="6.3259706"
       y="269.58987"
       id="rect47" />
    <path
       style="opacity:0.3"
       inkscape:connector-curvature="0"
       d="m 29.476967,271.59826 -8.418544,0 v 2.11667 l 8.418544,0 z"
       id="path49"
       sodipodi:nodetypes="ccccc" />
    <path
       style="opacity:0.3"
       inkscape:connector-curvature="0"
       d="m 29.476967,254.76117 -8.454636,0 v 2.11667 l 8.454636,0 z"
       id="path51"
       sodipodi:nodetypes="ccccc" />
    <path
       style="opacity:0.3"
       inkscape:connector-curvature="0"
       d="m 8.4426373,280.17324 h 4.2333337 v 2.11667 H 8.4426373 Z"
       id="path53" />
    <path
       style="opacity:0.3"
       inkscape:connector-curvature="0"
       d="m 8.4426373,263.23989 h 4.2333337 v 2.11667 H 8.4426373 Z"
       id="path55" />
    <path
       style="fill:none;stroke:#ffffff;stroke-width:2.01143241;stroke-linecap:round;stroke-linejoin:round"
       d="M 18.525391 1.4511719 L 16.011719 3.9648438 L 18.023438 3.9648438 L 18.021484 5.1992188 L 17.994141 5.1992188 L 18.007812 12.099609 L 17.994141 19 L 18.021484 19 L 18.023438 20.234375 L 16.011719 20.234375 L 18.525391 22.748047 L 21.039062 20.234375 L 19.029297 20.234375 L 19.013672 12.099609 L 19.029297 3.9648438 L 21.039062 3.9648438 L 18.525391 1.4511719 z "
       transform="matrix(2.1046361,0,0,2.1046361,0.01206217,246.34263)"
       id="path57" />
    <path
       style="fill:none;stroke:url(#linearGradient1030);stroke-width:2.01143241;stroke-linecap:round;stroke-linejoin:round"
       d="M 19.53125 1.1992188 L 17.017578 3.9648438 L 19.029297 3.9648438 L 19.027344 5.1992188 L 19 5.1992188 L 19.013672 12.099609 L 19 19 L 19.027344 19 L 19.029297 20.234375 L 17.017578 20.234375 L 19.53125 23 L 22.044922 20.234375 L 20.035156 20.234375 L 20.019531 12.099609 L 20.035156 3.9648438 L 22.044922 3.9648438 L 19.53125 1.1992188 z "
       transform="matrix(2.1046361,0,0,2.1046361,0.01206217,246.34263)"
       id="path59" />
    <path
       style="fill:url(#linearGradient1032);fill-rule:evenodd;stroke-width:0.12571453"
       d="M 19.53125 1.4511719 L 17.017578 3.9648438 L 19.029297 3.9648438 L 19.027344 5.1992188 L 19 5.1992188 L 19.013672 12.099609 L 19 19 L 19.027344 19 L 19.029297 20.234375 L 17.017578 20.234375 L 19.53125 22.748047 L 22.044922 20.234375 L 20.035156 20.234375 L 20.019531 12.099609 L 20.035156 3.9648438 L 22.044922 3.9648438 L 19.53125 1.4511719 z "
       id="path61"
       transform="matrix(2.1046361,0,0,2.1046361,0.01206217,246.34263)" />
    <path
       id="path63"
       d="m 104,124.5 -20,-20 h 16 v -64 h 8 v 64 h 16 z"
       style="opacity:0.89839603;fill:none;stroke:url(#linearGradient1034);filter:url(#h)"
       inkscape:connector-curvature="0"
       transform="matrix(0.26458333,0,0,-0.26458333,13.60198,282.33622)" />
    <path
       style="opacity:0.3"
       inkscape:connector-curvature="0"
       d="m 18.953787,254.76117 -10.5111497,0.012 v 2.11667 l 10.5111497,-0.012 z"
       id="path69"
       sodipodi:nodetypes="ccccc" />
    <path
       style="opacity:0.3"
       inkscape:connector-curvature="0"
       d="m 14.792639,263.23989 14.684328,-0.0602 v 2.11667 l -14.684328,0.0602 z"
       id="path71"
       sodipodi:nodetypes="ccccc" />
    <path
       style="opacity:0.3"
       inkscape:connector-curvature="0"
       d="m 18.941755,271.59826 -10.4991177,0.1083 v 2.11667 l 10.4991177,-0.1083 z"
       id="path73"
       sodipodi:nodetypes="ccccc" />
    <path
       style="opacity:0.3"
       inkscape:connector-curvature="0"
       d="m 14.792639,280.17324 14.684329,-0.15643 v 2.11667 l -14.684329,0.15643 z"
       id="path75"
       sodipodi:nodetypes="ccccc" />
    <rect
       id="rect964"
       y="286.33072"
       x="6.3259706"
       width="29.464905"
       rx="0.80763102"
       height="6.3139057"
       style="opacity:0.25;fill:url(#linearGradient970)" />
    <path
       id="path966"
       d="m 29.476968,288.29096 -10.450996,0.15643 v 2.11667 l 10.450996,-0.15643 z"
       inkscape:connector-curvature="0"
       style="opacity:0.3"
       sodipodi:nodetypes="ccccc" />
    <path
       id="path968"
       d="M 16.909304,288.44739 H 8.4426371 v 2.11667 h 8.4666669 z"
       inkscape:connector-curvature="0"
       style="opacity:0.3" />
    <path
       id="path65"
       d="m 41.118647,249.3956 -5.291666,5.29166 h 4.233333 v 14.59343 c 0.722114,-0.18324 1.429851,-0.38502 2.116667,-0.60358 v -13.98985 h 4.233333 z"
       style="fill:url(#linearGradient1036);fill-rule:evenodd;stroke-width:0.26458332"
       inkscape:connector-curvature="0" />
  </g>
</svg>
